X:1
T:Ben mio, dammi il tuo core
T:Claudio Saracini
T:Source : Le secondo Musische per cantar e sonar---Venetia---A.Vincenti---1620. Editor : André Vierendeels (26/11/15).
T:Notes : Original clefs : C1, F4 Editorial accidentals above the staff Figures above the BC are notated in original print 
T:Ben mio, dammi il tuo core
C:Claudio Saracini
%%score 1 2
L:1/8
Q:1/4=86
M:4/4
K:C
V:1 treble nm="Soprano" snm="S"
V:2 bass nm="BC" snm="BC"
V:1
 A8 | B8 | d2 G4 B2 | A4 A4 | c8 | ^c8 | d2 A4 ^G2 | B4 B4 | Bc d4 ^FG | A4 A4 | c2 EE EE E2 | %11
w: Ben|mio|dam- m'il tuo|co- re,|ben|mio|dam- m'il tuo|co- re,|che fo- ver- chio de-|si- o|bra- ma con que- sto tuo|
 A6 FE | E8 | D8 | z2 d2 AA F2 | E2 D/E/F/G/ A/D/E/F/ G/A/B/c/ | d/D/E/F/ G2 E4 | A4 DDDD | E4 E4 | %19
w: che cam- b'il|mi-|o,|gia ne l'e- sti-|vo'ar- do- * * * * * * * * * * *|* * * * * re,|pur con- ten- ti vo-|le- ri,|
 c4 ^GGGG | A4 A4 | E2 EE F2 G2 | A4 A4 | A2 AA B2 ^c2 | d4 ^c4 |"^-natural" z cGA B2 B2 | %26
w: per con- giun- t'i pen-|sie- ri,|quand' io ti dis- si'A-|mo- re,|quand' io ti dis- si'A-|mo- re,|hog- gi n'in vi- ta|
 z2 dc B4 | z2 cB A2 A2 |"^-natural" z2 GF E4 | z2 AG ^F2 F2 | B6 cd | ^G8 | A8 | E6 FG | %34
w: à le- gar|in duo co- ri,|à le- gar|in duo co- ri,|u- na sol|vi-|ta,|u na sol|
 E/F/G/A/ B/c/A/B/ ^c/d/c/d/ B/c/d/e/ | A/B/^c/d/ E/F/G/A/ D/E/F/G/ F/G/E/F/ | %36
w: vi- * * * * * * * * * * * * * * *||
 G/A/G/A/ ^C/D/E/F/ E/F/D/E/ F/G/F/G/ | E8 | D8 |] %39
w: ||ta.|
V:2
 D,8 | G,,8 | G,2 E,2 B,,4 | D,4 D,,4 | C,6 B,,2 |"^#" A,,8 | ^C,4 E,4- | E,4 E,,4 | G,,4 D,4- | %9
 D,4 D,,4 | A,,8 | A,,8- | A,,8 | D,8 | D,8 | ^C,2 _B,,6- | B,,4 A,,4 | ^F,,8 | A,,8 | %19
"^-natural" A,,2 E,6 | A,,8 | A,,2 A,,A,, D,2 C,2 | F,4 F,,4 | F,,2 F,,F,, G,,2 A,,2 | %24
"^#" _B,,4 A,,4 | A,2 E,F, G,2 G,2 |"^-natural" A,G, ^F,2 G,2 G,F, | E,4 ^C,4 | %28
 D,C, B,,2 C,2 C,B,, | A,,4 D,4 | B,,2 E,6- | E,8 | A,,8 | A,,8- | A,,8 | A,,8- | A,,8 | A,,8 | %38
 D,8 |] %39

